X:113
T:Sean O'Driscoll's Visit to Cuz
C:Terence "Cuz" Teahan
B:Terry "Cuz" Teahan "Sliabh Luachra on Parade" 1980
Z:Patrick Cavanagh
M:2/4
L:1/8
R:Polka
K:D
| EF/E/ FA | B/c/d e2 | fa/f/ ec | ec BA | 
B/c/d ef | ge ed | a2 fe | dB BA :| 
| dB BA | FE ED | B/c/d ef | ge ed | 
B/c/d c/B/A | GE ED | BG AG | ed Bd :|| 

